!!!ONB: MCCC : IJH0414_01 : Extracted Monophonic Melody
!!!COM: Haydn, Joseph
!!!OPR: String Quartet in B-flat major
!!!OMV: 1
!!!SCT: Hob.III:78 ; Op.76 No.4
!!!ODT: 1796///
**kern
*thru
*k[b-e-]
*B-:
*clefF
*M4/4
4e
=1
4.f
8a
8b-
8a
8b-
8dd
=2
4.ff
8a
8b-
8dd
8ff
8aa
=3
4.bb-
8aa
8gg
8ff
8ee-
8dd
=4
4cc
4r
4dd
4r
=5
4ee-
2.r
=6
2.r
4B
=7
4.c
8d
8e-
8f
8a
8cc
=8
4.ee-
8b
8cc
8dd
8ee-
8ff#
=9
4.gg
8ff
8ee-
8dd
8ee-
8cc
=10
4b-
4r
4cc
4r
=11
4dd
2.r
=12
2.ff
4ee
=13
2.ff
4ee
=14
2.ff
4ff#
=15
4.gg
8ff#
8gg
8ff#
8gg
8bb-
=16
4.ff
8dd
8ee-
8dd
8ee-
8a
=17
4.b-
8a
8b-
8a
8b-
8dd
=18
4.b-
8a
8b-
8a
8b-
8dd
=19
4.b-
8a
8b-
8a
8b-
8gg
=20
4.ff
8dd
8ee-
8dd
8ee-
8a
=21
16b-
16a
16b-
16dd
16f
16g
16e-
16f
16d
16b-
16a
16b-
16f
16g
16e-
16f
=22
16d
16b-
16a
16b-
16f
16dd
16cc#
16dd
16b-
16ff
16gg
16ff
16ee-
16dd
16cc
16b-
=23
16a
16ee-
16dd
16ee-
16cc
16dd
16b-
16cc
16a
16e-
16d
16e-
16c
16e-
16B-
16e-
=24
16A
16g
16f
16g
16e-
16cc
16b-
16cc
16a
16ee-
16dd
16ee-
16a
16gg
16ff
16ee-
=25
8dd
8r
8dd
8ee-
8ff
8r
8dd
8ee-
=26
2ff
2ff#
=27
4gg
8.gg
16gg
4aa
8.aa
16aa
=28
8bb-
8r
8ddd
8r
8bb-
8r
8ddd
8r
=29
8bb-
8bb-
8ddd
8ddd
8bb-
8bb-
8ddd
8ddd
=30
16bb-
16ddd
16ccc
16bb-
16aa
16ccc
16bb-
16aa
16gg
16bb-
16aa
16gg
16ff
16aa
16gg
16ff
=31
4ee
4ccc
4bb
4fff
=32
4eee
4ccc
4bb
4fff
=33
4eee
4ccc
4aa-
4b
=34
8cc
16cc
16b
16cc
16b
16cc
16b
8cc
16c
16B
16c
16B
16c
16B
=35
4c
8r
8ccc
8bb
8ccc
8bb-
8gg
=36
1aa
=37
1aa[
=38
1aa]
=39
1bb-
=40
1bb-
=41
1bb-[
=42
1bb-]
=43
4.aa-
8gg
8ff
8ee
8ff
8gg
=44
4.aa-
8gg
8ff
8ee
8ff
8gg
=45
8aa-
4aa-
8gg-
8ff
8ee-
8dd-
8ee-
=46
8ff
4ff
8ee-
8dd-
8cc
8b-
8cc
=47
8dd-
4dd-
8cc
8b-
8a
8b-
8a
=48
2b-
2b
=49
8cc
8r
8ee
8ff
8gg
8r
8ee
8ff
=50
8gg
8r
8gg
8aa
16bb-
16aa
16gg
16ff
16ee
16dd
16cc
16b-
=51
8a
8r
8aa
8bb-
8ccc
8r
8aa
8bb-
=52
8ccc
8r
8aa
8bb-
8ccc
8fff
8fff
8fff
=53
16eee
16fff
16eee
16fff
16ddd
16eee
16ddd
16eee
16ccc
16ddd
16ccc
16ddd
16bb-
16ccc
16bb-
16ccc
=54
16aa
16bb-
16aa
16bb-
16gg
16aa
16gg
16aa
4ff
4eee-
=55
2ddd
4eee
4fff
=56
16fff
16ccc
16eee
16ccc
16fff
16ccc
16eee
16ccc
16fff
16ccc
16eee
16ccc
16fff
16ccc
16eee
16ccc
=57
8fff
8r
8ccc
8r
8aa
8r
8ff
8r
=58
1gg
=59
8ff
8ccc
8ccc
8ccc
8ccc
8r
8aa
8r
=60
8ddd
8r
8bb-
8r
8gg
8r
8ccc
8r
=61
4aa
4.r
8fff
8r
8eee
=62
8r
8ddd
8r
8ddd-
8r
8ccc
8r
8bb-
=63
8aa
8ccc
8ccc
8ccc
8ccc
8ee
8ee
8ee
=64
8ff
8ccc
8ccc
8ccc
8ccc
8ee
8ee
8ee
=65
16ff
16ee
16ff
16aa
16cc
16aa
16gg
16ff
16ee
16ff#
16gg
16ff#
16gg
16bb-
16aa
16gg
=66
16ff
16ee
16ff
16aa
16cc
16aa
16gg
16ff
16ee
16ff#
16gg
16ff#
16gg
16bb-
16aa
16gg
=67
4ff
4aa
4ff
4r
=68
2.r
4c#
=69
4.d
8e
8f
8e
8f
8g#
=70
4.a
8cc#
8dd
8cc#
8dd
8ff
=71
4.gg#
8aa
8gg
8ff
8ee
8dd
=72
4cc#
4r
4dd
4r
=73
4ee
2.r
=74
2.r
4B
=75
4.c
8B
8c
8e-
8f#
8a
=76
4.cc
8b
8cc
8ee-
8ff#
8aa
=77
4.ccc
8bb-
8aa
8gg
8ff#
8aa
=78
4.cc
8b
8cc
8ee-
8a
8cc
=79
8b-
8r
8gg
8aa
8bb-
8r
8gg
8aa
=80
16bb-
16ccc
16ddd
16ccc
16bb-
16aa
16gg
16ff#
16gg
16ff
16ee-
16dd
16cc
16b-
16a
16g
=81
8f#
8r
8aa
8bb-
8ccc
8r
8aa
8bb-
=82
16ccc
16ddd
16eee-
16ddd
16ccc
16bb-
16aa
16gg
16ff#
16aa
16a
16b-
16cc
16ee-
16dd
16cc
=83
8b-
8r
16bb-
16aa
16bb-
16ccc
8ddd
8r
16bb-
16aa
16bb-
16ccc
=84
8ddd
16ddd
16eee-
8fff
16fff
16ggg
4aaa-
4d
=85
16e-
16e-
16d
16e-
16B-
16e-
16A-
16e-
16G
16e-
16d
16e-
16B-
16e-
16A-
16e-
=86
16G
16d-
16c
16d-
16c
16d-
16c
16d-
16G
16c
16B
16c
16G
16B-
16A
16B-
=87
16A-
16f
16e
16f
16c
16f
16B-
16f
16A-
16f
16e
16f
16c
16f
16B-
16f
=88
16A
16e-
16d
16e-
16d
16e-
16d
16e-
16A
16d
16c#
16d
16A
16c
16B
16c
=89
16B-
16g
16f#
16g
16d
16b-
16a
16b-
16g
16dd
16cc#
16dd
16b-
16gg
16ff#
16gg
=90
8ff#
8r
8aa
8r
8ccc
8r
8ff#
8r
=91
8gg
8r
8bb-
8r
8ddd
8r
8ddd
8r
=92
4.ddd
16eee-
16ddd
4ccc
4ccc
=93
4.ccc
16ddd
16ccc
4bb-
4bb-
=94
4aa
4r
4ff#
4r
=95
8gg
8ddd
8ddd
8ddd
8ddd
8r
8bb-
8r
=96
8eee-
8r
8ccc
8r
8aa
8r
8ddd
8r
=97
4bb-
4.r
8gg
8r
8ff
=98
8r
8ee-
8ee-
8ee-
8r
8ee-
8r
8dd
=99
8r
8cc
8cc
8cc
8r
8cc
8r
8b
=100
8r
8cc
8r
8b
8r
8cc
8r
8b
=101
8r
8cc
8r
8b
8r
8cc
8r
8b-
=102
4a
4r
4cc
4dd-
=103
4cc
4r
4c
4d-
=104
4c
4r
4A
4B
=105
4c
4r
4c
4d
=106
4e-
2.r
=107
2.r
4e
=108
4.f
8a
8b-
8a
8b-
8dd
=109
4.ff
8a
8b-
8dd
8ff
8aa
=110
4.bb-
8aa
8gg
8ff
8ee-
8dd
=111
4cc
4r
4dd
4r
=112
4ee-
2.r
=113
2.r
4B
=114
4.c
8d
8e-
8f
8a
8cc
=115
4.ee-
8b
8cc
8dd
8ee-
8ff#
=116
4.gg
8ff
8ee-
8dd
8ee-
8cc
=117
4b-
4r
4cc
4r
=118
4dd
2.r
=119
2.ff
4ee
=120
2.ff
4ee
=121
2.ff
4ff#
=122
4.gg
8ff#
8gg
8aa-
8dd
8ff
=123
1ee-[
=124
2.ee-]
4dd
=125
2.ee-
4dd
=126
1ee-
=127
4.ee-
8dd
8ee-
8gg-
8dd
8ff
=128
4.ee-
8dd
8ee-
8gg-
8dd
8ff
=129
4.ee-
8dd
8ee-
8gg-
8cc
8ee-
=130
4.dd-
8cc
8b-
8a
8b-
8cc
=131
4.dd-
8cc
8b-
8a
8b-
8a-
=132
4.g-
8f
8e-
8d
8e-
8f
=133
4.g-
8f
8e-
8d
8e-
8e
=134
16f
16cc
16b-
16cc
16a
16b-
16g
16a
16f
16ee-
16cc
16b-
16a
16gg
16ff
16ee-
=135
16dd
16ff
16ee
16ff
16dd
16ff
16cc
16ff
16b-
16ff
16gg
16ff
16bb-
16aa
16gg
16ff
=136
16ee
16bb-
16aa
16bb-
16gg
16bb-
16ff
16bb-
16ee
16ddd
16ccc
16bb-
16aa
16bb-
16aa
16bb-
=137
4aa
4ccc
4ddd-
4ee
=138
4ff
4ccc
4ddd-
4ee
=139
8ff
16ff
16ee
16ff
16ee
16ff
16ee
8ff
16f
16e
16f
16e
16f
16e
=140
4f
8r
8ff
8gg
8aa
8bb-
8ccc
=141
1ddd
=142
1ddd[
=143
1ddd]
=144
1eee-
=145
1eee-[
=146
1eee-]
=147
1ddd
=148
1ddd[
=149
1ddd]
=150
2eee-
2eee
=151
8fff
8r
8ccc
8ddd
8eee-
8r
8ccc
8ddd
=152
8eee-
8r
8ccc
8ddd
16eee-
16ddd
16eee-
16ccc
16bb-
16aa
16ccc
16ee-
=153
8dd
8r
8dd
8ee-
8ff
8r
8dd
8ee-
=154
8ff
8r
8dd
8ee-
8ff
8bb-
8bb-
8bb-
=155
16aa
16bb-
16aa
16bb-
16gg
16aa
16gg
16aa
16ff
16gg
16ff
16gg
16ee-
16ff
16ee-
16ff
=156
16dd
16ee-
16dd
16ee-
16cc
16dd
16cc
16dd
4b-
4aa-
=157
2gg
4aa
4bb-
=158
16bb-
16ff
16aa
16ff
16bb-
16ff
16aa
16ff
16bb-
16ff
16aa
16ff
16bb-
16ff
16aa
16ff
=159
8bb-
8r
8ff
8r
8dd
8r
8b-
8r
=160
1cc
=161
8b-
8ff
8ff
8ff
8ff
8r
8dd
8r
=162
8gg
8r
8ee-
8r
8cc
8r
8ff
8r
=163
4dd
4.r
8bb-
8r
8aa
=164
8r
8gg
8r
8gg-
8r
8ff
8r
8ee-
=165
4dd
4.r
8bb-
8bb-
8bb-
=166
4bb-
4.r
8bb-
8bb-
8bb-
=167
8aa
8ff
8ff
8ff
8gg
8r
8ff
8r
=168
8r
8ee-
8ee-
8ee
8ff
8r
8ee-
8r
=169
8dd
8r
8cc
8r
8b-
8r
8a
8r
=170
8bb-
8r
8aa
8r
8bb-
8r
8aa
8r
=171
8bb-
8bb-
8aa
8aa
8bb-
8bb-
8aa
8aa
=172
16b-
16bb-
16b-
16bb-
16cc
16ccc
16cc
16ccc
16dd
16ddd
16dd
16ddd
16ee-
16eee-
16ee-
16eee-
=173
1fff
=174
1g
=175
1g[
=176
4.g]
8f#
8g
8f#
8g
8b-
=177
1f
=178
4.c
8B
8c
8B
8c
8e-
=179
4.c
8d
8e-
8f#
8g
8f#
=180
4g
4e-
4c
4A
=181
8B-
8f
8f
8f
8f
8a
8a
8a
=182
8b-
8ff
8ff
8ff
8ff
8a
8a
8a
=183
16b-
16a
16b-
16dd
16f
16dd
16cc
16b-
16a
16b
16cc
16b
16cc
16ee-
16dd
16cc
=184
16b-
16a
16b-
16dd
16f
16dd
16cc
16b-
16a
16b
16cc
16b
16cc
16ee-
16dd
16cc
=185
8b-
8r
8bb-
8r
8ddd
8r
8bb-
8r
=186
4ff
4r
4dd
4r
=187
4b-
2.r
==
*-
